X: 274
T: Bill Cheatum [1]
B: canberra pickers and fiddlers
B: tunes
M:4/4
L:1/8
Q: 1/4=180
K:A
V:1 
"A"[A,2E2] [E2A2] [E4c4]|cBAc BAFE|"D"DFAc d2 de|fgaf ecBc|
"A"[A,2E2] [E2A2] [E3c3]B|cBAc BAcA|"A"dcde "D"fgaf|1 "E"ecBc "A"A4:|2"E"ecBc "A"A3||
|:"A"af|ecea "D"fdfa|"E"gefg "A"a2 af|"A"ecea "D"fdfa|"A"ecAc "E"B2 af|
"A"ecea "D"fdfa|"E"gefg "A"a2 (3"A"efg|"D"agae "E"faed|"A"cABc A3:|]
% abcbook-tune_id 63ae8f1c31ffb43b465fff8b
% abcbook-tune_composer_id 
% abcbook-link-0 https://www.youtube.com/watch?v=SMREtffhP9w
% abcbook-link-title-0 Bill Cheathum
% abcbook-link-1 https://www.youtube.com/watch?v=25OUiwlsDk0
% abcbook-link-title-1 David Grier - Bill Cheatum
% abcbook-boost 0
% abcbook-difficulty 0
% abcbook-tags canberra pickers and fiddlers,old time tunes,steve ryan,© free
% abcbook-tablature 
% abcbook-transpose 
% abcbook-tuning GDAE
% abcbook-lastupdated 1675154176245
% abcbook-src-url https://tunebook.net/scrape/tunes.abc
% abcbook-soundfonts 
% abcbook-repeats 1


